X:1
T:Mustármag
T:Mustármag
C:Unknown
Z:Public Domain
L:1/8
M:2/4
K:C
V:1 treble 
%%MIDI program 52
V:1
 z E EE |"Am" AE EE | EE DC |"E" E2 D2 | z4 | ^G2 GA | BB cB |"Am" A2 z2 :: AA AA |"Dm" F2 z2 | %10
w: Ha csak egy|mus- tár- mag- nyi|hi- te- tek is|vol- na,||ezt mon- dot-|ta a mi U-|runk,|És ha így szól-|tok|
 AB AA |"Am" E2 z2 | z E EE |"E" B2 z2 |1 z E EE |"Am" c2 z2 :|2 z E cB ||"Am" A2 z/ c/c/c/ |: %18
w: a nagy he- gyek-|hez:|moz- dul- ja-|tok,|moz- dul- ja-|tok,|moz- dul- ja-|tok, Ak- kor a|
 c<c cB | A"E"^G BB | A^G cc |1 B"Am"A z/ c/c/c/ :|2 B"Am" A2 z |:"Am" cA z2 | cA z2 | c"E"B ^G z | %26
w: he- gyek meg- in-|dul- nak, meg- in-|dul- nak, meg- in-|dul- nak, ak- kor a|dul- nak.|Jöjj el,|jöjj el,|ó, jöjj el,|
 Bc"Am" A z :| %27
w: Szent- lé- lek!|

